www/assets/icons/scanner.svg

<svg xmlns="http://www.w3.org/2000/svg" width="24" height="24" viewBox="0 0 24 24" fill='currentColor'><path d="M19.8 10.2 4.2 4.5l-.7 1.9 14.1 5.1H5c-1.1 0-2 .9-2 2v4c0 1.1.9 2 2 2h14c1.1 0 2-.9 2-2V12c0-.8-.5-1.6-1.2-1.8M7 16.5H5v-2h2zm12 0H9v-2h10z"/></svg>

<svg width="24" height="24" viewBox="0 0 24 24" xmlns="http://www.w3.org/2000/svg" fill='currentColor'><path d="M19.8 10.2L4.2 4.5L3.5 6.4L17.6 11.5H5C3.9 11.5 3 12.4 3 13.5V17.5C3 18.6 3.9 19.5 5 19.5H19C20.1 19.5 21 18.6 21 17.5V12C21 11.2 20.5 10.4 19.8 10.2ZM7 16.5H5V14.5H7V16.5ZM19 16.5H9V14.5H19V16.5Z"/></svg>
